X:1
T:Es ist die Lieb
T:André Vierendeels
T:Melody by Georg Vogler (1625) (Sporano voice)
T:Source : Catechismus---Würzburg---J.Volmari---1652. Editor : André Vierendeels (14/10/17).
T:Notes : Original clef C1, other voices supplied editorially Original note values have been halved Text Middle German
T:Es ist die Lieb
T:©
T:©
C:André Vierendeels
Z:©
%%score [ 1 2 3 ]
L:1/8
Q:1/4=87
M:2/2
K:C
V:1 treble nm="Soprano" snm="S"
V:2 treble-8 nm="Tenor" snm="T"
V:3 bass nm="Bass" snm="B"
V:1
"^1)" E4 F2 G2 | A4 G2 c2- | c2 B2 !fermata!c4 | c4 c2 c2 | B2 A4 G2- | G2 ^F2 !fermata!G4 | %6
w: Es ist die|Lieb, so kommpt|_ von Gott,|ihr Zei- chen|seyn die Zehn|_ Ge- bott:|
w: Er- zeht mir|dann die- se|_ Ge- nott|wel- che füh-|ren zum höch-|* sten Gott,|
 G4 A2 A2 | B2 B2 c2 A2 | !fermata!^G4 E4 | G2 A2 c2 B2- | B2 A4 ^G2 | !fermata!A4 E4 | ^F2 G2 E4 | %13
w: wann wie sie|ü- ber- tre- ten|nit, und|wand- len in der|_ Gna- den-|schrit, wer|le- ben will,|
w: das erst und|al- ler- gröst Ge-|bott: du|solt glau- ben an|_ ei- nen|Gott, zum|an- dern solt|
 ^G4 A2 B2 | !fermata!c4 c4 | B2 B2 d2 c2 | B2 B2 !fermata!A4 |] %17
w: kom- men zu|Gott, der|musz hal- ten sei-|ne Ge- bott.|
w: mit Forcht und|Schramm, nicht|ey- tel nen- nen|Got- tes Namn.|
V:2
"^2)""^1)" B4 A2 d2 | A4 d2 e2- | e2 d2 !fermata!e4 | e4 g2 e2 | e2 c4 c2 | d4 !fermata!d4 | %6
w: Es ist die|Lieb, so kommpt|_ von Gott,|ihr Zei- chen|seyn die Zehn|Ge- bott:|
w: Wers dritt nicht|wil be- mäh-|* lin- gen,|der soll den|Sa- bath hei-|li- gen,|
 e4 c2 e2 | d2 d2 c2 e2 | !fermata!B4 c4 | d2 d2 e2 d2 | B2 c2 e4 | !fermata!c4 c4 | A2 c2 c4 | %13
w: wann wie sie|ü- ber- tre- ten|nit, und|wand- len in der|Gna- * den-|schrit, wer|le- ben will,|
w: zum näch- stenns|sich das vier- te|kehrt, lehrt|wie man Vat- ter,|Mut- * ter|ehrt, das|fünft Ge- bott|
 B4 A2 d2 | !fermata!e4 g4 | d2 g2 d2 g2 | e2 e2 !fermata!e4 |] %17
w: kom- men zu|Gott, der|musz hal- ten sei-|ne Ge- bott.|
w: ver- beut Todt-|schlag, das|sechst Ge- bott so|viel ver- mag.|
V:3
"^3)""^1)""^4)" E,4 D,2 G,2 | D,4 G,2 C,2 | E,2 G,2 !fermata!C,4 | C,4 E,2 C,2 | G,2 A,4 E,2 | %5
w: Es ist die|Lieb, so kommpt|_ von Gott,|ihr Zei- chen|seyn die Zehn|
w: Dasz man kein|Un- ter- scheit|nicht _ treib:|sey un- be-|fleckt am Seel|
 A,4 !fermata!G,4 | C,4 A,,2 C,2 | D,2 G,2 A,2 E,2 | !fermata!E,4 A,4 | G,2 D,2 C,2 G,2- | %10
w: Ge- bott:|wann wie sie|ü- ber- tre- ten|nit, und|wand- len in der|
w: und Leib,|dasz sie- bend|Dieb- stal hoch ver-|beut, das|acht kein fal- sche|
 G,2 A,2 B,4 | !fermata!A,4 A,4 | D,2 C,2 A,4 | E,4 D,2 G,2 | !fermata!C,4 E,4 | G,2 G,2 D,2 E,2 | %16
w: _ Gna- den-|schrit, wer|le- ben will;|kom- men zu|Gott, der|musz hal- ten sei-|
w: _ Zeug- nusz|lend, dasz|neund, be- filcht|dasz du bey|Leib nicht|b'geh- ren dei- nen|
 A,2 ^G,2 !fermata!A,4 |] %17
w: ne Ge- bott.|
w: Näch- stens Weib.|

